casedrop/img/balance/images/yota.svg

<svg width="76" height="100" viewBox="0 0 76 100" fill="none" xmlns="http://www.w3.org/2000/svg">
<g clip-path="url(#clip0_63_8598)">
<path d="M33.3327 66.2663C31.7433 66.2663 30.3582 66.9195 29.4589 68.0028C28.5596 69.0861 28.1295 70.5374 28.1295 72.1321C28.1295 73.7269 28.5595 75.1781 29.4589 76.2615C30.3583 77.3448 31.7433 77.998 33.3327 77.998C34.9221 77.998 36.3072 77.3448 37.2065 76.2615C38.1058 75.1782 38.5359 73.7269 38.5359 72.1321C38.5359 70.5374 38.1059 69.0862 37.2065 68.0028C36.3071 66.9195 34.9221 66.2663 33.3327 66.2663ZM52.6007 66.4181C52.5988 66.4182 52.5968 66.4183 52.5949 66.4184C52.594 66.4184 52.593 66.4184 52.5921 66.4184C52.588 66.4187 52.5839 66.419 52.5797 66.4194C52.3623 66.4252 52.1526 66.5003 51.9818 66.6334C51.811 66.7666 51.6882 66.9507 51.6317 67.1584L47.7701 76.4173C47.7174 76.5389 47.6896 76.6697 47.6885 76.802C47.6873 76.9343 47.7127 77.0655 47.7633 77.188C47.8138 77.3105 47.8885 77.4219 47.9829 77.5156C48.0774 77.6094 48.1897 77.6836 48.3134 77.7341C48.4371 77.7845 48.5697 77.8101 48.7035 77.8095C48.8372 77.8088 48.9696 77.7819 49.0928 77.7302C49.2159 77.6785 49.3275 77.6032 49.421 77.5085C49.5145 77.4139 49.588 77.3018 49.6373 77.1788L50.4407 75.2524H54.7825L54.848 75.4097L55.5859 77.1787C55.6352 77.3017 55.7088 77.4138 55.8022 77.5085C55.8957 77.6031 56.0073 77.6785 56.1305 77.7301C56.2536 77.7818 56.386 77.8087 56.5198 77.8094C56.6536 77.8101 56.7861 77.7844 56.9098 77.734C57.0335 77.6835 57.1458 77.6093 57.2403 77.5156C57.3347 77.4218 57.4094 77.3105 57.4599 77.188C57.5105 77.0655 57.5359 76.9342 57.5347 76.8019C57.5336 76.6696 57.5058 76.5388 57.4532 76.4172L56.7153 74.6482L53.589 67.1523C53.5308 66.9435 53.4055 66.7591 53.2321 66.6268C53.0586 66.4945 52.8464 66.4216 52.6274 66.4191C52.6185 66.4186 52.6097 66.4183 52.6008 66.418L52.6007 66.4181ZM26.1082 66.4346C25.927 66.4325 25.7486 66.4785 25.5917 66.568C25.4347 66.6574 25.305 66.787 25.216 66.943L22.6564 71.2902L20.0988 66.9462C20.0073 66.7857 19.8727 66.6533 19.7098 66.5637C19.547 66.4741 19.3622 66.4308 19.176 66.4386C19.001 66.4459 18.831 66.4982 18.6825 66.5902C18.5341 66.6822 18.4124 66.8108 18.3295 66.9634C18.2465 67.116 18.2051 67.2873 18.2093 67.4605C18.2135 67.6337 18.2632 67.8028 18.3534 67.9513L21.6469 73.5451V76.8385C21.6463 77.0989 21.7484 77.3493 21.9317 77.5363C22.115 77.7233 22.3649 77.8321 22.6281 77.8395C22.8913 77.8469 23.1471 77.7524 23.3408 77.5761C23.5346 77.3997 23.6511 77.1555 23.6654 76.8955C23.6669 76.8755 23.6677 76.8555 23.6679 76.8355V73.5419L26.9614 67.948C27.053 67.7973 27.1028 67.6254 27.1057 67.4497C27.1086 67.2739 27.0646 67.1005 26.978 66.9469C26.8915 66.7934 26.7655 66.6651 26.6127 66.5752C26.46 66.4852 26.2859 66.4368 26.1082 66.4346ZM40.2866 66.4609C40.1528 66.459 40.0199 66.4834 39.8957 66.5328C39.7715 66.5821 39.6585 66.6554 39.5631 66.7483C39.4678 66.8412 39.3921 66.952 39.3405 67.0741C39.2888 67.1962 39.2622 67.3272 39.2622 67.4596C39.2622 67.592 39.2888 67.723 39.3405 67.8451C39.3921 67.9672 39.4678 68.078 39.5631 68.1709C39.6585 68.2638 39.7715 68.3371 39.8957 68.3865C40.0199 68.4358 40.1528 68.4602 40.2866 68.4583H42.6646L42.6737 76.7713C42.672 76.9036 42.6968 77.035 42.7468 77.1578C42.7968 77.2806 42.871 77.3923 42.9651 77.4864C43.0592 77.5806 43.1712 77.6554 43.2947 77.7063C43.4183 77.7573 43.5508 77.7835 43.6847 77.7833C43.8185 77.7832 43.951 77.7568 44.0744 77.7056C44.1978 77.6544 44.3097 77.5794 44.4036 77.485C44.4975 77.3907 44.5714 77.2788 44.6212 77.1559C44.671 77.033 44.6956 76.9016 44.6935 76.7693L44.6844 68.4584H47.0969C47.2307 68.4603 47.3636 68.4358 47.4878 68.3865C47.612 68.3372 47.725 68.2639 47.8204 68.171C47.9157 68.078 47.9914 67.9673 48.043 67.8452C48.0947 67.7231 48.1213 67.592 48.1213 67.4597C48.1213 67.3273 48.0947 67.1962 48.043 67.0741C47.9914 66.952 47.9157 66.8413 47.8204 66.7483C47.725 66.6554 47.612 66.5822 47.4878 66.5328C47.3636 66.4835 47.2307 66.459 47.0969 66.4609L40.2866 66.4609ZM33.3323 68.2637C34.4005 68.2637 35.1122 68.6282 35.6451 69.2703C36.1781 69.9124 36.5157 70.8945 36.5157 72.1322C36.5157 73.37 36.1781 74.3521 35.6451 74.9942C35.1121 75.6363 34.4004 76.0008 33.3323 76.0008C32.2641 76.0008 31.5525 75.6363 31.0196 74.9942C30.4866 74.3521 30.1489 73.37 30.1489 72.1322C30.1489 70.8945 30.4866 69.9124 31.0196 69.2703C31.5526 68.6282 32.2642 68.2637 33.3323 68.2637ZM52.612 70.0471L53.9499 73.2551H51.274L52.612 70.0471Z" fill="white"/>
<path d="M45.7998 34.3153C47.7872 32.3173 49.0142 29.5455 49.0125 26.515V24.3763C49.0125 23.0338 47.9124 21.9455 46.5549 21.9455C45.1949 21.9455 44.0957 23.0338 44.0957 24.3763V26.515C44.095 28.2446 43.4043 29.7832 42.2912 30.9069C41.174 32.0275 39.6708 32.7037 37.9906 32.7044C36.3095 32.7037 34.8082 32.0275 33.6893 30.9069C32.5777 29.7832 31.8864 28.2446 31.8864 26.515V24.3763C31.8864 23.0338 30.7854 21.9455 29.428 21.9455C28.0705 21.9455 26.9688 23.0338 26.9688 24.3763V26.515C26.9679 29.5455 28.1946 32.3173 30.1813 34.3153C31.6141 35.762 33.4644 36.8167 35.5314 37.2906V42.4083C33.4644 42.8819 31.6141 43.9375 30.1813 45.385C28.1946 47.383 26.9678 50.153 26.9688 53.1854V55.3233C26.9688 56.6649 28.0705 57.7535 29.428 57.7535C30.7854 57.7535 31.8864 56.6648 31.8864 55.3233V53.1854C31.8864 51.4557 32.5777 49.9153 33.6893 48.7927C34.8082 47.6717 36.3095 46.9959 37.9906 46.9942C39.6708 46.9959 41.174 47.6717 42.2912 48.7927C43.4043 49.9153 44.095 51.4557 44.0957 53.1854V55.3233C44.0957 56.6649 45.1949 57.7535 46.5549 57.7535C47.9124 57.7535 49.0125 56.6648 49.0125 55.3233V53.1854C49.0142 50.153 47.7872 47.383 45.7998 45.385C44.3672 43.9375 42.5169 42.8819 40.4498 42.4083V37.2906C42.5169 36.8167 44.3672 35.762 45.7998 34.3153Z" fill="#FFFFF7"/>
<path d="M37.9916 57.2417C40.343 57.2417 42.2488 55.3587 42.2488 53.0324C42.2488 50.7063 40.343 48.8215 37.9916 48.8215C35.6402 48.8215 33.7344 50.7063 33.7344 53.0324C33.7344 55.3587 35.6402 57.2417 37.9916 57.2417Z" fill="#FFFFF7"/>
</g>
<defs>
<clipPath id="clip0_63_8598">
<rect width="76" height="100" fill="white"/>
</clipPath>
</defs>
</svg>

<svg width="76" height="100" fill="none" xmlns="http://www.w3.org/2000/svg"><g clip-path="url(#clip0_63_8598)"><path d="M33.333 66.266c-1.59 0-2.975.653-3.874 1.737-.9 1.083-1.33 2.534-1.33 4.13 0 1.594.43 3.045 1.33 4.129.9 1.083 2.284 1.736 3.874 1.736 1.59 0 2.974-.653 3.873-1.737.9-1.083 1.33-2.534 1.33-4.129 0-1.595-.43-3.046-1.33-4.13-.899-1.082-2.284-1.736-3.873-1.736zm19.268.152h-.009l-.012.001a1.018 1.018 0 00-.598.214.998.998 0 00-.35.525l-3.862 9.26a.988.988 0 00.213 1.098 1.012 1.012 0 001.11.214 1.011 1.011 0 00.544-.551l.804-1.927h4.341l.066.158.738 1.769a1 1 0 00.544.551 1.02 1.02 0 001.11-.214.998.998 0 00.295-.714.99.99 0 00-.082-.385l-.738-1.769-3.126-7.496a.999.999 0 00-.357-.525 1.017 1.017 0 00-.631-.209zm-26.493.017a1.019 1.019 0 00-.892.508l-2.56 4.347-2.557-4.344a1.005 1.005 0 00-.923-.507 1.018 1.018 0 00-.846.524.99.99 0 00.023.988l3.294 5.594v3.293c0 .26.101.511.285.698a1.015 1.015 0 001.409.04.994.994 0 00.327-.74v-3.294l3.293-5.594a.99.99 0 00-.348-1.373 1.019 1.019 0 00-.505-.14zm14.179.026a1.019 1.019 0 00-.724.287.997.997 0 00-.223 1.097.997.997 0 00.556.541c.124.05.257.074.39.072h2.379l.009 8.313a.991.991 0 00.291.715 1.01 1.01 0 00.72.297 1.02 1.02 0 00.719-.298.997.997 0 00.29-.716l-.01-8.31h2.413a1.02 1.02 0 00.723-.288.998.998 0 00.301-.711.989.989 0 00-.3-.712 1.013 1.013 0 00-.724-.287h-6.81zm-6.955 1.803c1.069 0 1.78.364 2.313 1.006.533.642.87 1.624.87 2.862s-.337 2.22-.87 2.862c-.533.642-1.245 1.007-2.313 1.007s-1.78-.365-2.312-1.007c-.533-.642-.871-1.624-.871-2.862s.338-2.22.87-2.862c.534-.642 1.245-1.006 2.313-1.006zm19.28 1.783l1.338 3.208h-2.676l1.338-3.208z" fill="#fff"/><path d="M45.8 34.315a11.042 11.042 0 003.213-7.8v-2.139c0-1.342-1.1-2.43-2.458-2.43-1.36 0-2.46 1.088-2.46 2.43v2.139c0 1.73-.69 3.268-1.804 4.392a6.025 6.025 0 01-4.3 1.797 6.028 6.028 0 01-4.302-1.797 6.204 6.204 0 01-1.803-4.392v-2.139c0-1.342-1.1-2.43-2.458-2.43s-2.46 1.088-2.46 2.43v2.139a11.048 11.048 0 008.563 10.776v5.117a10.993 10.993 0 00-5.35 2.977 11.044 11.044 0 00-3.212 7.8v2.138c0 1.342 1.101 2.43 2.459 2.43 1.357 0 2.458-1.088 2.458-2.43v-2.138c0-1.73.692-3.27 1.803-4.392a6.032 6.032 0 014.302-1.799 6.029 6.029 0 014.3 1.799 6.201 6.201 0 011.805 4.392v2.138c0 1.342 1.099 2.43 2.459 2.43 1.357 0 2.458-1.088 2.458-2.43v-2.138a11.039 11.039 0 00-3.213-7.8 10.992 10.992 0 00-5.35-2.977v-5.117a10.998 10.998 0 005.35-2.976z" fill="#FFFFF7"/><path d="M37.992 57.242c2.351 0 4.257-1.883 4.257-4.21 0-2.326-1.906-4.21-4.257-4.21-2.352 0-4.258 1.884-4.258 4.21 0 2.327 1.906 4.21 4.258 4.21z" fill="#FFFFF7"/></g><defs><clipPath id="clip0_63_8598"><path fill="#fff" d="M0 0h76v100H0z"/></clipPath></defs></svg>
